include/LD/assets/icons/doctype/pdf.svg

<?xml version="1.0"?><svg xmlns="http://www.w3.org/2000/svg" width="56" height="64" viewBox="0 0 56 64"><path fill="#8C181A" d="m5.1 0c-2.8 0-5.1 2.3-5.1 5.1v53.8c0 2.8 2.3 5.1 5.1 5.1h45.8c2.8 0 5.1-2.3 5.1-5.1v-38.6l-18.9-20.3h-32z"></path><path fill="#6B0D12" d="m56 20.4v1h-12.8s-6.3-1.3-6.1-6.7c0 0 0.2 5.7 6 5.7h12.9z"></path><path opacity=".5" fill="#fff" enable-background="new" d="m37.1 0v14.6c0 1.7 1.1 5.8 6.1 5.8h12.8l-18.9-20.4z"></path><path fill="#fff" d="m14.9 49h-3.3v4.1c0 0.4-0.3 0.7-0.8 0.7-0.4 0-0.7-0.3-0.7-0.7v-10.2c0-0.6 0.5-1.1 1.1-1.1h3.7c2.4 0 3.8 1.7 3.8 3.6 0 2-1.4 3.6-3.8 3.6z m-0.1-5.9h-3.2v4.6h3.2c1.4 0 2.4-0.9 2.4-2.3s-1-2.3-2.4-2.3z m10.4 10.7h-3c-0.6 0-1.1-0.5-1.1-1.1v-9.8c0-0.6 0.5-1.1 1.1-1.1h3c3.7 0 6.2 2.6 6.2 6s-2.4 6-6.2 6z m0-10.7h-2.6v9.3h2.6c2.9 0 4.6-2.1 4.6-4.7 0.1-2.5-1.6-4.6-4.6-4.6z m16.3 0h-5.8v3.9h5.7c0.4 0 0.6 0.3 0.6 0.7s-0.3 0.6-0.6 0.6h-5.7v4.8c0 0.4-0.3 0.7-0.8 0.7-0.4 0-0.7-0.3-0.7-0.7v-10.2c0-0.6 0.5-1.1 1.1-1.1h6.2c0.4 0 0.6 0.3 0.6 0.7 0.1 0.3-0.2 0.6-0.6 0.6z"></path></svg>

<svg xmlns="http://www.w3.org/2000/svg" x="0px" y="0px"
	 width="56px" height="64px" viewBox="0 0 56 64" enable-background="new 0 0 56 64" xml:space="preserve">
<g>
	<path fill="#8C181A" d="M5.1,0C2.3,0,0,2.3,0,5.1v53.8C0,61.7,2.3,64,5.1,64h45.8c2.8,0,5.1-2.3,5.1-5.1V20.3L37.1,0H5.1z"/>
	<path fill="#6B0D12" d="M56,20.4v1H43.2c0,0-6.3-1.3-6.1-6.7c0,0,0.2,5.7,6,5.7H56z"/>
	<path opacity="0.5" fill="#FFFFFF" enable-background="new    " d="M37.1,0v14.6c0,1.7,1.1,5.8,6.1,5.8H56L37.1,0z"/>
</g>
<path fill="#FFFFFF" d="M14.9,49h-3.3v4.1c0,0.4-0.3,0.7-0.8,0.7c-0.4,0-0.7-0.3-0.7-0.7V42.9c0-0.6,0.5-1.1,1.1-1.1h3.7
	c2.4,0,3.8,1.7,3.8,3.6C18.7,47.4,17.3,49,14.9,49z M14.8,43.1h-3.2v4.6h3.2c1.4,0,2.4-0.9,2.4-2.3C17.2,44,16.2,43.1,14.8,43.1z
	 M25.2,53.8h-3c-0.6,0-1.1-0.5-1.1-1.1v-9.8c0-0.6,0.5-1.1,1.1-1.1h3c3.7,0,6.2,2.6,6.2,6C31.4,51.2,29,53.8,25.2,53.8z M25.2,43.1
	h-2.6v9.3h2.6c2.9,0,4.6-2.1,4.6-4.7C29.9,45.2,28.2,43.1,25.2,43.1z M41.5,43.1h-5.8V47h5.7c0.4,0,0.6,0.3,0.6,0.7
	s-0.3,0.6-0.6,0.6h-5.7v4.8c0,0.4-0.3,0.7-0.8,0.7c-0.4,0-0.7-0.3-0.7-0.7V42.9c0-0.6,0.5-1.1,1.1-1.1h6.2c0.4,0,0.6,0.3,0.6,0.7
	C42.2,42.8,41.9,43.1,41.5,43.1z"/>
</svg>
